packages/ui-solid/icons/leave_28.svg

<svg width="28" height="28" viewBox="0 0 28 28" fill="none" xmlns="http://www.w3.org/2000/svg">
<path fill-rule="evenodd" clip-rule="evenodd" d="M8.67802 3.96567H11.7649C12.4657 3.96566 13.0441 3.96565 13.517 3.99969C14.0075 4.03499 14.4604 4.11061 14.8935 4.30118C15.8006 4.7003 16.5252 5.42488 16.9243 6.33198C17.1149 6.7651 17.1905 7.21796 17.2258 7.70847C17.2598 8.18136 17.2598 8.75977 17.2598 9.46064V9.49644C17.2598 10.0428 16.8169 10.4857 16.2705 10.4857C15.7242 10.4857 15.2812 10.0428 15.2812 9.49644C15.2812 8.75083 15.2806 8.24393 15.2523 7.85051C15.2247 7.46668 15.1744 7.26783 15.1133 7.12882C14.9135 6.67473 14.5507 6.312 14.0967 6.1122C13.9576 6.05104 13.7588 6.00078 13.375 5.97316C12.9815 5.94484 12.4746 5.94424 11.729 5.94424H8.71819C7.88375 5.94424 7.31642 5.94499 6.87762 5.98025C6.45008 6.01461 6.23087 6.07692 6.07782 6.1534C5.69362 6.34537 5.38211 6.65687 5.19014 7.04108C5.11367 7.19413 5.05135 7.41334 5.01699 7.84088C4.98173 8.27968 4.98099 8.847 4.98099 9.68144V17.9498C4.98099 18.7842 4.98173 19.3516 5.01699 19.7904C5.05135 20.2179 5.11367 20.4371 5.19014 20.5902C5.38211 20.9744 5.69362 21.2859 6.07782 21.4778C6.23087 21.5543 6.45008 21.6166 6.87762 21.651C7.31642 21.6862 7.88375 21.687 8.71819 21.687H11.544C12.3785 21.687 12.9458 21.6862 13.3846 21.651C13.8121 21.6166 14.0314 21.5543 14.1844 21.4778C14.5686 21.2859 14.8801 20.9744 15.0721 20.5902C15.1486 20.4371 15.2109 20.2179 15.2452 19.7904C15.2805 19.3516 15.2812 18.7842 15.2812 17.9498V17.6266C15.2812 17.0803 15.7242 16.6374 16.2705 16.6374C16.8169 16.6374 17.2598 17.0803 17.2598 17.6266V17.9899C17.2598 18.7742 17.2598 19.4214 17.2174 19.9488C17.1734 20.4965 17.079 21.0002 16.842 21.4745C16.4585 22.242 15.8363 22.8643 15.0688 23.2478C14.5945 23.4848 14.0908 23.5792 13.5431 23.6232C13.0156 23.6656 12.3685 23.6656 11.5843 23.6656H8.67794C7.89372 23.6656 7.24657 23.6656 6.71913 23.6232C6.17143 23.5792 5.66776 23.4848 5.19344 23.2478C4.42596 22.8643 3.8037 22.242 3.42022 21.4745C3.18321 21.0002 3.08879 20.4965 3.04478 19.9488C3.00239 19.4214 3.0024 18.7742 3.00241 17.99V9.64128C3.0024 8.85702 3.00239 8.20985 3.04478 7.68239C3.08879 7.13469 3.18321 6.63102 3.42022 6.15669C3.8037 5.38922 4.42596 4.76696 5.19344 4.38347C5.66776 4.14647 6.17143 4.05205 6.71913 4.00803C7.24659 3.96565 7.89377 3.96566 8.67802 3.96567ZM19.6615 9.30744C20.0466 8.91978 20.6729 8.91764 21.0606 9.30266L24.6419 12.8596C24.8289 13.0453 24.9341 13.298 24.9341 13.5615C24.9341 13.8251 24.8289 14.0777 24.6419 14.2635L21.0606 17.8204C20.6729 18.2054 20.0466 18.2033 19.6615 17.8157C19.2765 17.428 19.2787 16.8016 19.6663 16.4166L21.5449 14.5508H10.1311C9.58474 14.5508 9.14182 14.1079 9.14182 13.5615C9.14182 13.0152 9.58474 12.5723 10.1311 12.5723H21.5449L19.6663 10.7065C19.2787 10.3215 19.2765 9.69509 19.6615 9.30744Z" fill="#007AFF"/>
</svg>

<svg xmlns="http://www.w3.org/2000/svg" width="28" height="28" fill="none"><path fill="currentColor" fill-rule="evenodd" d="M8.678 3.966h3.087c.7 0 1.28 0 1.752.034.49.035.943.11 1.377.301a3.96 3.96 0 0 1 2.03 2.031c.19.433.267.886.302 1.376.034.473.034 1.052.034 1.753v.035a.99.99 0 1 1-1.979 0c0-.745 0-1.252-.029-1.645-.027-.384-.078-.583-.139-.722a1.98 1.98 0 0 0-1.016-1.017c-.14-.061-.338-.111-.722-.139-.393-.028-.9-.029-1.646-.029h-3.01c-.835 0-1.403.001-1.841.036-.428.035-.647.097-.8.173a2 2 0 0 0-.888.888c-.076.153-.139.372-.173.8-.035.439-.036 1.006-.036 1.84v8.269c0 .834 0 1.402.036 1.84.034.428.097.647.173.8.192.384.504.696.888.888.153.076.372.139.8.173.438.035 1.006.036 1.84.036h2.826c.835 0 1.402 0 1.84-.036.428-.034.647-.097.8-.173.385-.192.696-.504.888-.888.077-.153.139-.372.173-.8.036-.438.036-1.006.036-1.84v-.323a.99.99 0 0 1 1.979 0v.363c0 .784 0 1.431-.043 1.959-.044.547-.138 1.051-.375 1.525a3.96 3.96 0 0 1-1.773 1.774c-.475.237-.978.331-1.526.375-.527.043-1.174.043-1.959.043H8.678c-.784 0-1.431 0-1.959-.043-.548-.044-1.051-.138-1.526-.375a3.96 3.96 0 0 1-1.773-1.774c-.237-.474-.331-.977-.375-1.525-.043-.528-.043-1.175-.043-1.959V9.641c0-.784 0-1.431.043-1.959.044-.547.138-1.051.375-1.525a3.96 3.96 0 0 1 1.773-1.774c.475-.237.978-.33 1.526-.375.528-.042 1.175-.042 1.959-.042m10.984 5.341a.99.99 0 0 1 1.399-.004l3.58 3.557a.99.99 0 0 1 0 1.404l-3.58 3.556a.99.99 0 0 1-1.395-1.403l1.879-1.866H10.13a.99.99 0 1 1 0-1.979h11.414l-1.879-1.865a.99.99 0 0 1-.005-1.4" clip-rule="evenodd"/></svg>
